;FLAVOR:UltiGCode
;TIME:8915
;MATERIAL:11646
;MATERIAL2:0
;NOZZLE_DIAMETER:0.4

;Generated with Cura_SteamEngine 2.1.2
;LAYER_COUNT:98
;LAYER:0
M107
G10
G0 F7200.000000 X76.696 Y63.450 Z0.300
;TYPE:SKIRT
G11
G1 F1800.000 X77.239 Y62.877 E0.09473
G1 X77.838 Y62.362 E0.18952
G1 X78.486 Y61.911 E0.28426
G1 X79.177 Y61.527 E0.37913
G1 X79.902 Y61.215 E0.47384
G1 X80.655 Y60.978 E0.56857
G1 X81.429 Y60.819 E0.66339
G1 X82.214 Y60.738 E0.75809
G1 X82.616 Y60.728 E0.80635
G1 X87.616 Y60.728 E1.40635
G1 X88.405 Y60.768 E1.50115
G1 X89.185 Y60.887 E1.59583
G1 X89.950 Y61.085 E1.69066
G1 X90.690 Y61.359 E1.78535
G1 X91.399 Y61.707 E1.88012
G1 X91.515 Y61.779 E1.89651
G1 X91.838 Y61.502 E1.94757
G1 X92.486 Y61.051 E2.04231
G1 X93.177 Y60.667 E2.13717
G1 X93.902 Y60.355 E2.23189
G1 X94.655 Y60.118 E2.32662
G1 X95.429 Y59.959 E2.42143
G1 X96.214 Y59.878 E2.51613
G1 X96.616 Y59.868 E2.56439
G1 X101.616 Y59.868 E3.16439
G1 X102.405 Y59.908 E3.25919
G1 X103.185 Y60.027 E3.35387
G1 X103.950 Y60.225 E3.44870
G1 X104.690 Y60.499 E3.54339
G1 X105.399 Y60.847 E3.63817
G1 X106.070 Y61.265 E3.73303
G1 X106.694 Y61.748 E3.82772
G1 X107.267 Y62.291 E3.92245
G1 X107.460 Y62.515 E3.95794
G1 X107.987 Y62.288 E4.02679
G1 X108.740 Y62.051 E4.12152
G1 X109.514 Y61.892 E4.21634
G1 X110.299 Y61.811 E4.31104
G1 X110.701 Y61.801 E4.35930
G1 X115.700 Y61.801 E4.95918
G1 X116.489 Y61.841 E5.05398
G1 X117.269 Y61.960 E5.14866
G1 X118.034 Y62.158 E5.24349
G1 X118.774 Y62.432 E5.33818
G1 X119.483 Y62.780 E5.43295
G1 X119.599 Y62.852 E5.44934
G1 X119.922 Y62.575 E5.50040
G1 X120.570 Y62.124 E5.59514
G1 X121.261 Y61.740 E5.69000
G1 X121.986 Y61.428 E5.78472
G1 X122.739 Y61.191 E5.87945
G1 X123.513 Y61.032 E5.97427
G1 X124.298 Y60.951 E6.06897
G1 X124.700 Y60.941 E6.11722
G1 X129.700 Y60.941 E6.71722
G1 X130.489 Y60.981 E6.81202
G1 X131.269 Y61.100 E6.90671
G1 X132.034 Y61.298 E7.00153
G1 X132.774 Y61.572 E7.09622
G1 X133.483 Y61.920 E7.19100
G1 X134.154 Y62.338 E7.28586
G1 X134.778 Y62.821 E7.38055
G1 X135.351 Y63.364 E7.47528
G1 X135.866 Y63.963 E7.57008
G1 X136.317 Y64.611 E7.66482
G1 X136.701 Y65.302 E7.75968
G1 X137.013 Y66.027 E7.85440
G1 X137.250 Y66.780 E7.94913
G1 X137.409 Y67.554 E8.04395
G1 X137.477 Y68.208 E8.12285
G1 X137.642 Y68.611 E8.17511
G1 X137.867 Y69.368 E8.26987
G1 X138.015 Y70.144 E8.36467
G1 X138.081 Y70.875 E8.45275
G1 X138.094 Y71.177 E8.48902
G1 X138.088 Y71.966 E8.58370
G1 X138.002 Y72.751 E8.67847
G1 X137.837 Y73.524 E8.77332
G1 X137.595 Y74.275 E8.86800
G1 X137.278 Y74.999 E8.96284
G1 X136.870 Y75.718 E9.06205
G1 X136.708 Y75.971 E9.09810
G1 X136.249 Y76.614 E9.19290
G1 X135.727 Y77.207 E9.28770
G1 X135.015 Y77.853 E9.40307
G1 X132.283 Y80.041 E9.82309
G1 X132.283 Y99.023 E12.10093
G1 X132.706 Y99.279 E12.16026
G1 X133.337 Y99.754 E12.25504
G1 X133.917 Y100.291 E12.34989
G1 X134.439 Y100.883 E12.44460
G1 X134.899 Y101.525 E12.53937
G1 X135.292 Y102.210 E12.63414
G1 X135.542 Y102.753 E12.70588
G1 X135.685 Y103.098 E12.75069
G1 X135.950 Y103.842 E12.84547
G1 X136.138 Y104.609 E12.94023
G1 X136.248 Y105.391 E13.03499
G1 X136.279 Y106.083 E13.11812
G1 X136.283 Y118.591 E14.61908
G1 X136.243 Y119.379 E14.71376
G1 X136.132 Y120.123 E14.80403
G1 X135.979 Y120.888 E14.89765
G1 X135.785 Y121.653 E14.99235
G1 X135.514 Y122.395 E15.08714
G1 X135.170 Y123.106 E15.18193
G1 X134.818 Y123.687 E15.26344
G1 X134.385 Y124.336 E15.35707
G1 X133.914 Y124.970 E15.45184
G1 X133.382 Y125.553 E15.54655
G1 X132.793 Y126.079 E15.64131
G1 X132.226 Y126.495 E15.72570
G1 X131.577 Y126.928 E15.81933
G1 X130.899 Y127.333 E15.91410
G1 X130.183 Y127.667 E16.00890
G1 X129.437 Y127.926 E16.10367
G1 X128.778 Y128.089 E16.18513
G1 X128.013 Y128.242 E16.27875
G1 X127.232 Y128.357 E16.37348
G1 X126.483 Y128.393 E16.46346
G1 X122.860 Y128.393 E16.89822
G1 X122.521 Y129.083 E16.99048
G1 X122.103 Y129.754 E17.08534
G1 X121.620 Y130.378 E17.18003
G1 X121.077 Y130.951 E17.27476
G1 X120.478 Y131.466 E17.36956
G1 X119.830 Y131.917 E17.46430
G1 X119.139 Y132.301 E17.55916
G1 X118.414 Y132.613 E17.65387
G1 X117.661 Y132.850 E17.74860
G1 X116.887 Y133.009 E17.84342
G1 X116.102 Y133.090 E17.93812
G1 X115.700 Y133.100 E17.98638
G1 X110.701 Y133.100 E18.58626
G1 X109.912 Y133.060 E18.68106
G1 X109.132 Y132.941 E18.77574
G1 X108.367 Y132.743 E18.87057
G1 X107.627 Y132.469 E18.96526
G1 X106.918 Y132.121 E19.06004
G1 X106.247 Y131.703 E19.15490
G1 X105.623 Y131.220 E19.24959
G1 X105.050 Y130.677 E19.34432
G1 X104.535 Y130.078 E19.43912
G1 X104.084 Y129.430 E19.53386
G1 X103.700 Y128.739 E19.62872
G1 X103.388 Y128.014 E19.72343
G1 X103.151 Y127.261 E19.81816
G1 X102.992 Y126.487 E19.91298
G1 X102.960 Y126.174 E19.95074
G1 X102.827 Y126.253 E19.96930
G1 X102.112 Y126.588 E20.06405
G1 X101.367 Y126.850 E20.15882
G1 X100.682 Y127.018 E20.24346
G1 X99.916 Y127.170 E20.33717
G1 X99.135 Y127.284 E20.43188
G1 X98.398 Y127.319 E20.52042
G1 X94.776 Y127.319 E20.95506
G1 X94.437 Y128.010 E21.04742
G1 X94.019 Y128.681 E21.14229
G1 X93.536 Y129.305 E21.23698
G1 X92.993 Y129.878 E21.33171
G1 X92.394 Y130.393 E21.42650
G1 X91.746 Y130.844 E21.52124
G1 X91.055 Y131.228 E21.61611
G1 X90.330 Y131.540 E21.71082
G1 X89.577 Y131.777 E21.80555
G1 X88.803 Y131.936 E21.90037
G1 X88.018 Y132.017 E21.99507
G1 X87.616 Y132.027 E22.04332
G1 X82.616 Y132.027 E22.64332
G1 X81.827 Y131.987 E22.73813
G1 X81.047 Y131.868 E22.83281
G1 X80.282 Y131.670 E22.92763
G1 X79.542 Y131.396 E23.02233
G1 X78.833 Y131.048 E23.11710
G1 X78.162 Y130.630 E23.21197
G1 X77.538 Y130.147 E23.30666
G1 X76.965 Y129.604 E23.40139
G1 X76.450 Y129.005 E23.49618
G1 X75.999 Y128.357 E23.59092
G1 X75.615 Y127.666 E23.68579
G1 X75.303 Y126.941 E23.78050
G1 X75.066 Y126.188 E23.87523
G1 X74.907 Y125.414 E23.97005
G1 X74.826 Y124.629 E24.06475
G1 X74.816 Y124.227 E24.11301
G1 X74.816 Y68.528 E30.79689
G1 X74.856 Y67.739 E30.89169
G1 X74.975 Y66.959 E30.98637
G1 X75.173 Y66.194 E31.08119
G1 X75.447 Y65.454 E31.17589
G1 X75.795 Y64.745 E31.27066
G1 X76.213 Y64.074 E31.36553
G1 X76.696 Y63.450 E31.46022
G0 F7200.00000 X77.091 Y63.605
G1 F1800.000 X77.632 Y63.058 E31.55254
G1 X78.227 Y62.570 E31.64488
G1 X78.869 Y62.147 E31.73714
G1 X79.552 Y61.792 E31.82951
G1 X80.267 Y61.511 E31.92170
G1 X81.009 Y61.305 E32.01411
G1 X81.767 Y61.177 E32.10636
G1 X82.616 Y61.128 E32.20841
G1 X87.616 Y61.128 E32.80841
G1 X88.384 Y61.168 E32.90069
G1 X89.144 Y61.287 E32.99300
G1 X89.887 Y61.485 E33.08527
G1 X90.606 Y61.759 E33.17761
G1 X91.292 Y62.106 E33.26986
G1 X91.555 Y62.275 E33.30737
G1 X91.632 Y62.198 E33.32044
G1 X92.227 Y61.710 E33.41278
G1 X92.869 Y61.287 E33.50504
G1 X93.552 Y60.932 E33.59741
G1 X94.267 Y60.651 E33.68960
G1 X95.009 Y60.445 E33.78201
G1 X95.767 Y60.317 E33.87426
G1 X96.616 Y60.268 E33.97631
G1 X101.616 Y60.268 E34.57631
G1 X102.384 Y60.308 E34.66859
G1 X103.144 Y60.427 E34.76090
G1 X103.887 Y60.625 E34.85317
G1 X104.606 Y60.899 E34.94551
G1 X105.292 Y61.246 E35.03776
G1 X105.939 Y61.662 E35.13006
G1 X106.539 Y62.143 E35.22234
G1 X107.086 Y62.684 E35.31466
G1 X107.355 Y63.012 E35.36557
G1 X107.637 Y62.865 E35.40373
G1 X108.352 Y62.584 E35.49592
G1 X109.094 Y62.378 E35.58832
G1 X109.852 Y62.250 E35.68057
G1 X110.701 Y62.201 E35.78262
G1 X115.700 Y62.201 E36.38250
G1 X116.468 Y62.241 E36.47479
G1 X117.228 Y62.360 E36.56710
G1 X117.971 Y62.558 E36.65937
G1 X118.690 Y62.832 E36.75170
G1 X119.376 Y63.179 E36.84395
G1 X119.639 Y63.348 E36.88147
G1 X119.716 Y63.271 E36.89454
G1 X120.311 Y62.783 E36.98688
G1 X120.953 Y62.360 E37.07914
G1 X121.636 Y62.005 E37.17151
G1 X122.351 Y61.724 E37.26370
G1 X123.093 Y61.518 E37.35610
G1 X123.851 Y61.390 E37.44835
G1 X124.700 Y61.341 E37.55040
G1 X129.700 Y61.341 E38.15040
G1 X130.468 Y61.381 E38.24269
G1 X131.228 Y61.500 E38.33500
G1 X131.971 Y61.698 E38.42727
G1 X132.690 Y61.972 E38.51960
G1 X133.376 Y62.319 E38.61185
G1 X134.023 Y62.735 E38.70416
G1 X134.623 Y63.216 E38.79644
G1 X135.170 Y63.757 E38.88876
G1 X135.658 Y64.352 E38.98110
G1 X136.081 Y64.994 E39.07336
G1 X136.436 Y65.677 E39.16573
G1 X136.717 Y66.392 E39.25792
G1 X136.923 Y67.134 E39.35033
G1 X137.051 Y67.892 E39.44258
G1 X137.073 Y68.277 E39.48885
G1 X137.285 Y68.801 E39.55668
G1 X137.497 Y69.541 E39.64905
G1 X137.632 Y70.298 E39.74133
G1 X137.681 Y70.892 E39.81285
G1 X137.694 Y71.194 E39.84912
G1 X137.687 Y71.963 E39.94141
G1 X137.601 Y72.727 E40.03367
G1 X137.435 Y73.478 E40.12596
G1 X137.192 Y74.208 E40.21829
G1 X136.875 Y74.909 E40.31061
G1 X136.533 Y75.502 E40.39275
G1 X136.371 Y75.755 E40.42881
G1 X135.923 Y76.381 E40.52118
G1 X135.413 Y76.956 E40.61341
G1 X134.765 Y77.541 E40.71817
G1 X131.883 Y79.849 E41.16124
G1 X131.883 Y99.247 E43.48900
G1 X132.515 Y99.633 E43.57787
G1 X133.127 Y100.100 E43.67025
G1 X133.686 Y100.628 E43.76252
G1 X134.188 Y101.211 E43.85484
G1 X134.626 Y101.842 E43.94702
G1 X134.997 Y102.516 E44.03934
G1 X135.172 Y102.907 E44.09074
G1 X135.315 Y103.252 E44.13556
G1 X135.572 Y103.976 E44.22775
G1 X135.753 Y104.724 E44.32010
G1 X135.855 Y105.486 E44.41236
G1 X135.879 Y106.083 E44.48405
G1 X135.883 Y118.591 E45.98501
G1 X135.843 Y119.359 E46.07730
G1 X135.739 Y120.044 E46.16044
G1 X135.586 Y120.809 E46.25406
G1 X135.396 Y121.555 E46.34644
G1 X135.130 Y122.276 E46.43866
G1 X134.791 Y122.966 E46.53091
G1 X134.486 Y123.465 E46.60109
G1 X134.053 Y124.114 E46.69471
G1 X133.593 Y124.731 E46.78707
G1 X133.072 Y125.296 E46.87929
G1 X132.495 Y125.805 E46.97162
G1 X132.004 Y126.163 E47.04454
G1 X131.355 Y126.596 E47.13816
G1 X130.694 Y126.989 E47.23044
G1 X129.995 Y127.311 E47.32280
G1 X129.267 Y127.559 E47.41509
G1 X128.699 Y127.696 E47.48520
G1 X127.934 Y127.849 E47.57882
G1 X127.173 Y127.961 E47.67112
G1 X126.483 Y127.993 E47.75401
G1 X122.582 Y127.993 E48.22213
G1 X122.469 Y128.290 E48.26026
G1 X122.122 Y128.976 E48.35252
G1 X121.706 Y129.623 E48.44482
G1 X121.225 Y130.223 E48.53710
G1 X120.684 Y130.770 E48.62942
G1 X120.089 Y131.258 E48.72176
G1 X119.447 Y131.681 E48.81402
G1 X118.764 Y132.036 E48.90639
G1 X118.049 Y132.317 E48.99858
G1 X117.307 Y132.523 E49.09099
G1 X116.549 Y132.651 E49.18324
G1 X115.700 Y132.700 E49.28529
G1 X110.701 Y132.700 E49.88517
G1 X109.933 Y132.660 E49.97745
G1 X109.173 Y132.541 E50.06976
G1 X108.430 Y132.343 E50.16203
G1 X107.711 Y132.069 E50.25437
G1 X107.025 Y131.722 E50.34662
G1 X106.378 Y131.306 E50.43892
G1 X105.778 Y130.825 E50.53120
G1 X105.231 Y130.284 E50.62352
G1 X104.743 Y129.689 E50.71587
G1 X104.320 Y129.047 E50.80813
G1 X103.965 Y128.364 E50.90050
G1 X103.684 Y127.649 E50.99268
G1 X103.478 Y126.907 E51.08509
G1 X103.350 Y126.149 E51.17734
G1 X103.312 Y125.495 E51.25595
G1 X103.282 Y125.515 E51.26028
G1 X102.621 Y125.910 E51.35268
G1 X101.924 Y126.233 E51.44487
G1 X101.196 Y126.483 E51.53723
G1 X100.604 Y126.625 E51.61029
G1 X99.838 Y126.777 E51.70400
G1 X99.077 Y126.888 E51.79629
G1 X98.398 Y126.919 E51.87785
G1 X94.499 Y126.919 E52.34573
G1 X94.385 Y127.217 E52.38402
G1 X94.038 Y127.903 E52.47627
G1 X93.622 Y128.550 E52.56858
G1 X93.141 Y129.150 E52.66086
G1 X92.600 Y129.697 E52.75318
G1 X92.005 Y130.185 E52.84552
G1 X91.363 Y130.608 E52.93778
G1 X90.680 Y130.963 E53.03015
G1 X89.965 Y131.244 E53.12234
G1 X89.223 Y131.450 E53.21475
G1 X88.465 Y131.578 E53.30699
G1 X87.616 Y131.627 E53.40904
G1 X82.616 Y131.627 E54.00904
G1 X81.848 Y131.587 E54.10133
G1 X81.088 Y131.468 E54.19364
G1 X80.345 Y131.270 E54.28591
G1 X79.626 Y130.996 E54.37824
G1 X78.940 Y130.649 E54.47050
G1 X78.293 Y130.233 E54.56280
G1 X77.693 Y129.752 E54.65508
G1 X77.146 Y129.211 E54.74740
G1 X76.658 Y128.616 E54.83974
G1 X76.235 Y127.974 E54.93200
G1 X75.880 Y127.291 E55.02437
G1 X75.599 Y126.576 E55.11656
G1 X75.393 Y125.834 E55.20897
G1 X75.265 Y125.076 E55.30122
G1 X75.216 Y124.227 E55.40327
G1 X75.216 Y68.528 E62.08715
G1 X75.256 Y67.760 E62.17943
G1 X75.375 Y67.000 E62.27174
G1 X75.573 Y66.257 E62.36401
G1 X75.847 Y65.538 E62.45635
G1 X76.194 Y64.852 E62.54860
G1 X76.610 Y64.205 E62.64090
G1 X77.091 Y63.605 E62.73318
G0 F7200.00000 X77.487 Y63.765
G1 F1800.000 X78.024 Y63.244 E62.82297
G1 X78.614 Y62.785 E62.91267
G1 X79.250 Y62.390 E63.00251
G1 X79.924 Y62.066 E63.09225
G1 X80.629 Y61.816 E63.18201
G1 X81.357 Y61.642 E63.27183
G1 X82.099 Y61.547 E63.36160
G1 X82.616 Y61.528 E63.42368
G1 X87.616 Y61.528 E64.02368
G1 X88.363 Y61.568 E64.11345
G1 X89.101 Y61.687 E64.20315
G1 X89.823 Y61.885 E64.29299
G1 X90.519 Y62.158 E64.38271
G1 X91.182 Y62.505 E64.47251
G1 X91.607 Y62.788 E64.53378
G1 X92.024 Y62.384 E64.60345
G1 X92.614 Y61.925 E64.69315
G1 X93.250 Y61.530 E64.78299
G1 X93.924 Y61.206 E64.87273
G1 X94.629 Y60.956 E64.96250
G1 X95.357 Y60.782 E65.05232
G1 X96.099 Y60.687 E65.14208
G1 X96.616 Y60.668 E65.20416
G1 X101.616 Y60.668 E65.80416
G1 X102.363 Y60.708 E65.89393
G1 X103.101 Y60.827 E65.98364
G1 X103.823 Y61.025 E66.07348
G1 X104.519 Y61.298 E66.16319
G1 X105.182 Y61.645 E66.25299
G1 X105.805 Y62.060 E66.34282
G1 X106.379 Y62.539 E66.43253
G1 X106.900 Y63.076 E66.52231
G1 X107.245 Y63.519 E66.58969
G1 X107.335 Y63.463 E66.60241
G1 X108.009 Y63.139 E66.69215
G1 X108.714 Y62.889 E66.78192
G1 X109.442 Y62.715 E66.87174
G1 X110.184 Y62.620 E66.96150
G1 X110.701 Y62.601 E67.02358
G1 X115.700 Y62.601 E67.62346
G1 X116.447 Y62.641 E67.71323
G1 X117.185 Y62.760 E67.80294
G1 X117.907 Y62.958 E67.89278
G1 X118.603 Y63.231 E67.98249
G1 X119.266 Y63.578 E68.07229
G1 X119.691 Y63.861 E68.13356
G1 X120.108 Y63.457 E68.20323
G1 X120.698 Y62.998 E68.29294
G1 X121.334 Y62.603 E68.38278
G1 X122.008 Y62.279 E68.47252
G1 X122.713 Y62.029 E68.56228
G1 X123.441 Y61.855 E68.65210
G1 X124.183 Y61.760 E68.74187
G1 X124.700 Y61.741 E68.80395
G1 X129.700 Y61.741 E69.40395
G1 X130.447 Y61.781 E69.49372
G1 X131.185 Y61.900 E69.58342
G1 X131.907 Y62.098 E69.67326
G1 X132.603 Y62.371 E69.76297
G1 X133.266 Y62.718 E69.85277
G1 X133.889 Y63.133 E69.94260
G1 X134.463 Y63.612 E70.03231
G1 X134.984 Y64.149 E70.12210
G1 X135.443 Y64.739 E70.21180
G1 X135.838 Y65.375 E70.30164
G1 X136.162 Y66.049 E70.39138
G1 X136.412 Y66.754 E70.48114
G1 X136.586 Y67.482 E70.57096
G1 X136.681 Y68.224 E70.66073
G1 X136.687 Y68.382 E70.67970
G1 X136.927 Y68.990 E70.75814
G1 X137.126 Y69.711 E70.84790
G1 X137.247 Y70.449 E70.93764
G1 X137.282 Y70.909 E70.99300
G1 X137.295 Y71.211 E71.02927
G1 X137.287 Y71.959 E71.11904
G1 X137.199 Y72.702 E71.20882
G1 X137.033 Y73.431 E71.29854
G1 X136.790 Y74.139 E71.38837
G1 X136.472 Y74.816 E71.47812
G1 X136.196 Y75.287 E71.54363
G1 X136.034 Y75.540 E71.57968
G1 X135.598 Y76.147 E71.66936
G1 X135.099 Y76.705 E71.75919
G1 X134.515 Y77.228 E71.85327
G1 X131.483 Y79.657 E72.31947
G1 X131.483 Y99.497 E74.70027
G1 X131.686 Y99.594 E74.72726
G1 X132.323 Y99.987 E74.81708
G1 X132.914 Y100.445 E74.90680
G1 X133.453 Y100.964 E74.99659
G1 X133.934 Y101.537 E75.08637
G1 X134.350 Y102.158 E75.17606
G1 X134.803 Y103.060 E75.29719
G1 X134.946 Y103.405 E75.34200
G1 X135.195 Y104.110 E75.43173
G1 X135.367 Y104.838 E75.52149
G1 X135.461 Y105.580 E75.61124
G1 X135.479 Y106.083 E75.67164
G1 X135.483 Y118.591 E77.17260
G1 X135.443 Y119.338 E77.26237
G1 X135.347 Y119.966 E77.33860
G1 X135.194 Y120.731 E77.43222
G1 X135.008 Y121.455 E77.52192
G1 X134.746 Y122.156 E77.61173
G1 X134.411 Y122.825 E77.70151
G1 X134.153 Y123.243 E77.76046
G1 X133.720 Y123.892 E77.85408
G1 X133.272 Y124.491 E77.94384
G1 X132.763 Y125.039 E78.03359
G1 X132.198 Y125.530 E78.12341
G1 X131.782 Y125.830 E78.18496
G1 X131.133 Y126.263 E78.27858
G1 X130.489 Y126.644 E78.36837
G1 X129.809 Y126.955 E78.45810
G1 X129.099 Y127.191 E78.54789
G1 X128.621 Y127.304 E78.60683
G1 X127.856 Y127.457 E78.70044
G1 X127.115 Y127.564 E78.79029
G1 X126.483 Y127.593 E78.86621
G1 X122.309 Y127.593 E79.36709
G1 X122.070 Y128.203 E79.44571
G1 X121.723 Y128.866 E79.53550
G1 X121.308 Y129.489 E79.62533
G1 X120.829 Y130.063 E79.71504
G1 X120.292 Y130.584 E79.80483
G1 X119.702 Y131.043 E79.89453
G1 X119.066 Y131.438 E79.98437
G1 X118.392 Y131.762 E80.07411
G1 X117.687 Y132.012 E80.16387
G1 X116.959 Y132.186 E80.25369
G1 X116.217 Y132.281 E80.34346
G1 X115.700 Y132.300 E80.40554
G1 X110.701 Y132.300 E81.00542
G1 X109.954 Y132.260 E81.09519
G1 X109.216 Y132.141 E81.18490
